X:96
T:Stokkendans
Z:Bert Van Vreckem <http://flanders.blackmill.net/music/>
M:2/4
L:1/4
Q:2/4=120
N:Repeat, change tempo and key ad lib.
K:C
E2|G2|D/F/ E/D/|E C|E2|G2|D/F/ E/D/|C2:|
|:C/D/ E/C/|D D/E/|F F|E E|C/D/ E/C/|D D/E/|F G|C2:|

